svg/u1f421.svg

<svg viewBox="0 0 128 128" xmlns="http://www.w3.org/2000/svg">
  <path d="M93.32,41.05c0,0,8.92-7.88,9.1-7.7s3.66,4.97,3.66,7.41c0,3.05-2.72,6.38-2.72,6.38 s11.54-6.38,12.2-6.19s7.98,13.61,7.98,14.55s-6.85,15.11-7.51,15.3c-0.66,0.19-11.07-4.79-11.07-4.79s3.57,4.32,3.1,7.88 c-0.47,3.57-2.72,9.01-3.28,9.29s-11.36-6.76-11.36-6.76L93.32,41.05z" fill="#8A5A54"/>
  <path d="M19.46,44.8c0,0-6.1-13.7-5.73-14.08c0.38-0.38,13.33,6.95,13.33,6.95L19.46,44.8z" fill="#CD7955"/>
  <path d="M32.41,33.63c0,0,0.09-16.61,0.66-16.89c0.56-0.28,11.17,12.86,11.17,12.86L32.41,33.63z" fill="#CD7955"/>
  <path d="M49.87,28.38c0,0,5.82-15.39,6.38-15.39c0.56,0,7.32,17.55,7.32,17.55L49.87,28.38z" fill="#CD7955"/>
  <path d="M65.92,28.85c0,0,8.82-13.05,9.67-12.86s2.35,16.99,2.35,16.99L65.92,28.85z" fill="#CD7955"/>
  <path d="M78.78,32.69c0,0,12.95-9.1,13.51-8.82c0.56,0.28-0.94,17.74-0.94,17.74L78.78,32.69z" fill="#CD7955"/>
  <path d="M15.14,66.29c0,0-11.36,8.17-11.26,9.48s15.2,2.53,15.2,2.53L15.14,66.29z" fill="#BA8D72"/>
  <path d="M21.9,83.66c0,0-8.35,11.07-7.88,11.83c0.47,0.75,15.49-3.28,15.49-3.28L21.9,83.66z" fill="#BA8D72"/>
  <path d="M32.98,95.58c0,0-2.06,16.33-1.13,16.71s12.39-11.17,12.39-11.17L32.98,95.58z" fill="#BA8D72"/>
  <path d="M50.06,101.77c0,0,7.51,15.02,8.07,15.02c0.56,0,5.16-16.05,5.16-16.05L50.06,101.77z" fill="#BA8D72"/>
  <path d="M70.05,99.33c0,0,10.79,9.39,11.83,9.01c1.03-0.38-0.84-15.39-0.84-15.39L70.05,99.33z" fill="#BA8D72"/>
  <path d="M85.06,91.26c0,0,14.83,5.16,15.3,4.6c0.47-0.56-7.7-15.02-7.7-15.02L85.06,91.26z" fill="#BA8D72"/>
  <path d="M97.59,54.66c0.42,1.9,8.17-2.11,10.28-3.1c2.11-0.99,8.66-3.94,8.02-5.07 c-0.63-1.13-7.53,2.04-9.29,2.82C104.84,50.08,97.38,53.69,97.59,54.66z" fill="#BA8D72"/>
  <path d="M97.5,57.19c-0.05,1.12,2.11,1.81,10.14,1.38s11.76-1.81,11.68-2.93c-0.07-1.13-9.08-0.66-12.04-0.45 S97.57,55.71,97.5,57.19z" fill="#BA8D72"/>
  <path d="M99.33,60.29c-0.28,0.61,5.63,3.07,9.78,4.27c4.15,1.2,7.41,2.37,7.77,1.31 c0.35-1.06-2.98-2.44-7.06-3.78C106.43,60.98,99.82,59.23,99.33,60.29z" fill="#BA8D72"/>
  <path d="M15.99,67.3c0,0-1.55-0.77-1.76-2.18c-0.21-1.41-0.07-6.97,1.48-12.32s5-10.49,5-10.49l-2.6-6.48 l5.84,2.53c0,0,3.45-3.03,5.84-4.36c2.39-1.34,5.28-2.67,5.28-2.67l0.35-7.93l4.79,5.96c0,0,3.03-0.84,6.83-1.13 c3.8-0.28,6.62-0.56,6.62-0.56l2.79-7.18l2.35,7.32c0,0,2.53-0.07,5.63,0.14c3.1,0.21,5.44,0.52,5.44,0.52l3.75-5.82l1.08,7.13 c0,0,2.35,0.84,4.32,1.69s4.62,2.32,4.62,2.32l5.56-4.36l-0.77,7.39c0,0,10.63,5.35,13.02,19.36s-2.77,18.65-2.77,18.65L15.99,67.3z " fill="#F3A25C"/>
  <radialGradient id="SVGID_1_" cx="57.1892" cy="49.6809" gradientTransform="matrix(-7.194059e-03 1 -0.8892 -6.396784e-03 101.7746 -7.189)" gradientUnits="userSpaceOnUse" r="52.1837">
    <stop offset="0.6221" stop-color="#F4D6B5"/>
    <stop offset="0.7443" stop-color="#F1D2B2"/>
    <stop offset="0.873" stop-color="#E7C5AA"/>
    <stop offset="1" stop-color="#D8B19C"/>
  </radialGradient>
  <path d="M37.72,54.45c-12.87,3.98-23.37,11.19-23.37,11.19l0.77,3.45l-5.77,5.35l7.32,0.99 c0,0,0.58,1.87,2.7,5.74s3.64,5.38,3.64,5.38l-3.78,5.39l7.02-1.45c0,0,2.56,2.92,4.39,4.33c1.83,1.41,4.77,3.76,4.77,3.76 l-0.92,7.46l6.05-5.14c0,0,2.75,0.99,6.12,1.62c3.38,0.63,6.97,0.7,6.97,0.7l3.87,7.32l2.67-7.53c0,0,4.29-0.49,6.83-0.99 c2.53-0.49,6.55-2.53,6.55-2.53l6.76,5l-1.06-8.02c0,0,3.8-2.39,5.42-3.59c1.62-1.2,3.8-3.38,3.8-3.38l6.97,2.25l-3.17-6.83 c0,0,3.17-3.87,4.72-6.05c1.55-2.18,3.73-7.39,3.73-7.39S92.88,59.1,74.95,53.68C59.82,49.1,45.46,52.06,37.72,54.45z" fill="url(#SVGID_1_)"/>
  <path d="M28.09,78.59c0.91,0.61,9.85-9.57,9.85-9.57s-0.47-2.53-3-3.75c-2.53-1.22-4.79-0.19-4.79-0.19 S27.25,78.02,28.09,78.59z" fill="#FBFFFE"/>
  <path d="M50.99,63.76c0,0,1.97-2.72,6.01-2.44s5.73,2.25,5.73,2.25s-4.13,14.45-5.07,14.45 C56.72,78.02,50.99,63.76,50.99,63.76z" fill="#FBFFFE"/>
  <path d="M39.45,92.95c0.8,0.8,11.17-8.92,11.17-8.92s-1.22-2.63-3.85-4.41c-2.63-1.78-6.76-0.66-6.76-0.66 S38.7,92.2,39.45,92.95z" fill="#FBFFFE"/>
  <path d="M64.13,80.65c0,0,0.7-2.96,3.94-4.04c3.66-1.22,5.91,0.47,5.91,0.47s0.56,12.67-0.47,13.23 S64.13,80.65,64.13,80.65z" fill="#FBFFFE"/>
  <path d="M74.93,67.61c0,0-0.47-3,1.88-4.79s4.88-1.22,4.88-1.22s5.16,11.92,4.5,12.48 C85.53,74.65,74.93,67.61,74.93,67.61z" fill="#FBFFFE"/>
  <path d="M44.28,40.01c0.9,0.9,2.53-0.84,3.19-1.6c0.66-0.75,2.02-2.16,2.02-2.16L51.89,38 c0,0,1.92,1.92,3.1,0.75c0.73-0.73-1.74-3.71-2.77-4.83s-2.3-2.39-3.1-2.25c-0.93,0.16-2.27,2.13-3.05,3.38 C44.66,37.29,43.53,39.26,44.28,40.01z" fill="#CD7955"/>
  <path d="M72.96,42.69c0.51,1.69,3.44,0.23,4.22-0.05c1.08-0.38,2.49-0.89,2.49-0.89s0.19,1.36,0.33,2.96 c0.09,1,0.28,3.05,1.64,3c1.41-0.05,1.42-2.54,1.36-3.8c-0.19-3.75,0-5.87-0.89-6.43c-0.89-0.56-5.68,2.06-6.66,2.63 S72.67,41.75,72.96,42.69z" fill="#CD7955"/>
  <path d="M30.86,38.75c-4.65,1.74-5.82,5.82-5.21,8.4c0.61,2.58,3.14,6.52,10.18,5.3 c6.35-1.1,6.72-7.23,5.3-10.23C39.54,38.84,35.56,36.99,30.86,38.75z" fill="#FFDC1E"/>
  <path d="M28.89,45.22c-0.14,2.91,2.54,4.06,5.07,3.89c1.45-0.09,4.5-1.13,4.32-4.18 c-0.18-2.86-2.63-3.47-5.16-3.43C31.28,41.55,29.01,42.88,28.89,45.22z" fill="#282F2F"/>
  <path d="M23.17,53.01c0.17-4.31-3-7.09-7.46-6.34c-4.32,0.73-3.46,5.94-3.33,6.52 c0.19,0.84,0.66,1.97,0.66,1.97S12,55.83,12,57.89s0.78,4.05,4.5,3.52C20.45,60.85,23.03,56.49,23.17,53.01z" fill="#FF6666"/>
  <path d="M14.06,54.77c0.14,0.42-0.24,1.9,1.78,1.88c4.32-0.05,5.19-2.63,5.23-3.19 c0.05-0.56-0.56-2.06-4.93-1.97C12.85,51.56,13.87,54.2,14.06,54.77z" fill="#A82612"/>
  <path d="M49.02,52.78c0.24,2.38,3.97,3.53,8.35,4.13c4.79,0.66,8.21,0.47,8.21,0.47s2.35-1.13,2.3-7.79 c-0.05-6.48-2.58-7.32-2.58-7.32s-6.43,0.47-11.5,4.22C51,48.57,48.84,50.9,49.02,52.78z" fill="#885B52"/>
  <path d="M60.15,46.44c-3.51,0.92-11.31,3.99-11.12,6.34c0.14,1.74,3.89,1.31,9.1,1.27 c5.5-0.05,9.16,0.53,9.16,0.53s0.17-0.47,0.26-0.87c0.11-0.48,0.13-1.02,0.13-1.02s-4.39-0.78-8.56-0.66 c-3.28,0.09-7.79,0.7-6.8-0.42c0.35-0.4,5.58-2.58,8.45-3.1c2.86-0.52,7.04-0.79,7.04-0.79s-0.05-0.6-0.14-1.2 c-0.06-0.4-0.21-1.04-0.21-1.04S63.2,45.65,60.15,46.44z" fill="#BA8D72"/>
</svg>

<svg viewBox="0 0 128 128" xmlns="http://www.w3.org/2000/svg">
  <defs>
    <radialGradient id="SVGID_1_" cx="49.268457" cy="-64.711383" gradientTransform="matrix(-0.007194 1 -0.8892 -0.006397 0 0)" gradientUnits="userSpaceOnUse" r="52.1837">
      <stop offset="0.6221" stop-color="#F4D6B5"/>
      <stop offset="0.7443" stop-color="#F1D2B2"/>
      <stop offset="0.873" stop-color="#E7C5AA"/>
      <stop offset="1" stop-color="#D8B19C"/>
    </radialGradient>
  </defs>
  <path d="M93.32,41.05 C93.32,41.05 102.24,33.17 102.42,33.35 C102.6,33.53 106.08,38.32 106.08,40.76 C106.08,43.81 103.36,47.14 103.36,47.14 C103.36,47.14 114.9,40.76 115.56,40.95 C116.22,41.14 123.54,54.56 123.54,55.5 C123.54,56.44 116.69,70.61 116.03,70.8 C115.37,70.99 104.96,66.01 104.96,66.01 C104.96,66.01 108.53,70.33 108.06,73.89 C107.59,77.46 105.34,82.9 104.78,83.18 C104.22,83.46 93.42,76.42 93.42,76.42 L93.32,41.05 Z" fill="#8A5A54"/>
  <path d="M19.46,44.8 C19.46,44.8 13.36,31.1 13.73,30.72 C14.11,30.34 27.06,37.67 27.06,37.67 L19.46,44.8 Z" fill="#CD7955"/>
  <path d="M32.41,33.63 C32.41,33.63 32.5,17.02 33.07,16.74 C33.63,16.46 44.24,29.6 44.24,29.6 L32.41,33.63 Z" fill="#CD7955"/>
  <path d="M49.87,28.38 C49.87,28.38 55.69,12.99 56.25,12.99 C56.81,12.99 63.57,30.54 63.57,30.54 L49.87,28.38 Z" fill="#CD7955"/>
  <path d="M65.92,28.85 C65.92,28.85 74.74,15.8 75.59,15.99 C76.44,16.18 77.94,32.98 77.94,32.98 L65.92,28.85 Z" fill="#CD7955"/>
  <path d="M78.78,32.69 C78.78,32.69 91.73,23.59 92.29,23.87 C92.85,24.15 91.35,41.61 91.35,41.61 L78.78,32.69 Z" fill="#CD7955"/>
  <path d="M15.14,66.29 C15.14,66.29 3.78,74.46 3.88,75.77 C3.98,77.08 19.08,78.3 19.08,78.3 L15.14,66.29 Z" fill="#BA8D72"/>
  <path d="M21.9,83.66 C21.9,83.66 13.55,94.73 14.02,95.49 C14.49,96.24 29.51,92.21 29.51,92.21 L21.9,83.66 Z" fill="#BA8D72"/>
  <path d="M32.98,95.58 C32.98,95.58 30.92,111.91 31.85,112.29 C32.78,112.67 44.24,101.12 44.24,101.12 L32.98,95.58 Z" fill="#BA8D72"/>
  <path d="M50.06,101.77 C50.06,101.77 57.57,116.79 58.13,116.79 C58.69,116.79 63.29,100.74 63.29,100.74 L50.06,101.77 Z" fill="#BA8D72"/>
  <path d="M70.05,99.33 C70.05,99.33 80.84,108.72 81.88,108.34 C82.91,107.96 81.04,92.95 81.04,92.95 L70.05,99.33 Z" fill="#BA8D72"/>
  <path d="M85.06,91.26 C85.06,91.26 99.89,96.42 100.36,95.86 C100.83,95.3 92.66,80.84 92.66,80.84 L85.06,91.26 Z" fill="#BA8D72"/>
  <path d="M97.59,54.66 C98.01,56.56 105.76,52.55 107.87,51.56 C109.98,50.57 116.53,47.62 115.89,46.49 C115.26,45.36 108.36,48.53 106.6,49.31 C104.84,50.08 97.38,53.69 97.59,54.66 Z" fill="#BA8D72"/>
  <path d="M97.5,57.19 C97.45,58.31 99.61,59 107.64,58.57 C115.67,58.14 119.4,56.76 119.32,55.64 C119.25,54.51 110.24,54.98 107.28,55.19 C104.32,55.4 97.57,55.71 97.5,57.19 Z" fill="#BA8D72"/>
  <path d="M99.33,60.29 C99.05,60.9 104.96,63.36 109.11,64.56 C113.26,65.76 116.52,66.93 116.88,65.87 C117.23,64.81 113.9,63.43 109.82,62.09 C106.43,60.98 99.82,59.23 99.33,60.29 Z" fill="#BA8D72"/>
  <path d="M15.99,67.3 C15.99,67.3 14.44,66.53 14.23,65.12 C14.02,63.71 14.16,58.15 15.71,52.8 C17.26,47.45 20.71,42.31 20.71,42.31 L18.11,35.83 L23.95,38.36 C23.95,38.36 27.4,35.33 29.79,34 C32.18,32.66 35.07,31.33 35.07,31.33 L35.42,23.4 L40.21,29.36 C40.21,29.36 43.24,28.52 47.04,28.23 C50.84,27.95 53.66,27.67 53.66,27.67 L56.45,20.49 L58.8,27.81 C58.8,27.81 61.33,27.74 64.43,27.95 C67.53,28.16 69.87,28.47 69.87,28.47 L73.62,22.65 L74.7,29.78 C74.7,29.78 77.05,30.62 79.02,31.47 C80.99,32.32 83.64,33.79 83.64,33.79 L89.2,29.43 L88.43,36.82 C88.43,36.82 99.06,42.17 101.45,56.18 C103.84,70.19 98.68,74.83 98.68,74.83 L15.99,67.3 Z" fill="#F3A25C"/>
  <path d="M37.72,54.45 C24.85,58.43 14.35,65.64 14.35,65.64 L15.12,69.09 L9.35,74.44 L16.67,75.43 C16.67,75.43 17.25,77.3 19.37,81.17 C21.49,85.04 23.01,86.55 23.01,86.55 L19.23,91.94 L26.25,90.49 C26.25,90.49 28.81,93.41 30.64,94.82 C32.47,96.23 35.41,98.58 35.41,98.58 L34.49,106.04 L40.54,100.9 C40.54,100.9 43.29,101.89 46.66,102.52 C50.04,103.15 53.63,103.22 53.63,103.22 L57.5,110.54 L60.17,103.01 C60.17,103.01 64.46,102.52 67,102.02 C69.53,101.53 73.55,99.49 73.55,99.49 L80.31,104.49 L79.25,96.47 C79.25,96.47 83.05,94.08 84.67,92.88 C86.29,91.68 88.47,89.5 88.47,89.5 L95.44,91.75 L92.27,84.92 C92.27,84.92 95.44,81.05 96.99,78.87 C98.54,76.69 100.72,71.48 100.72,71.48 C100.72,71.48 92.88,59.1 74.95,53.68 C59.82,49.1 45.46,52.06 37.72,54.45 Z" fill="url(#SVGID_1_)"/>
  <path d="M28.09,78.59 C29,79.2 37.94,69.02 37.94,69.02 C37.94,69.02 37.47,66.49 34.94,65.27 C32.41,64.05 30.15,65.08 30.15,65.08 C30.15,65.08 27.25,78.02 28.09,78.59 Z" fill="#FBFFFE"/>
  <path d="M50.99,63.76 C50.99,63.76 52.96,61.04 57,61.32 C61.04,61.6 62.73,63.57 62.73,63.57 C62.73,63.57 58.6,78.02 57.66,78.02 C56.72,78.02 50.99,63.76 50.99,63.76 Z" fill="#FBFFFE"/>
  <path d="M39.45,92.95 C40.25,93.75 50.62,84.03 50.62,84.03 C50.62,84.03 49.4,81.4 46.77,79.62 C44.14,77.84 40.01,78.96 40.01,78.96 C40.01,78.96 38.7,92.2 39.45,92.95 Z" fill="#FBFFFE"/>
  <path d="M64.13,80.65 C64.13,80.65 64.83,77.69 68.07,76.61 C71.73,75.39 73.98,77.08 73.98,77.08 C73.98,77.08 74.54,89.75 73.51,90.31 C72.48,90.87 64.13,80.65 64.13,80.65 Z" fill="#FBFFFE"/>
  <path d="M74.93,67.61 C74.93,67.61 74.46,64.61 76.81,62.82 C79.16,61.03 81.69,61.6 81.69,61.6 C81.69,61.6 86.85,73.52 86.19,74.08 C85.53,74.65 74.93,67.61 74.93,67.61 Z" fill="#FBFFFE"/>
  <path d="M44.28,40.01 C45.18,40.91 46.81,39.17 47.47,38.41 C48.13,37.66 49.49,36.25 49.49,36.25 L51.89,38 C51.89,38 53.81,39.92 54.99,38.75 C55.72,38.02 53.25,35.04 52.22,33.92 C51.19,32.8 49.92,31.53 49.12,31.67 C48.19,31.83 46.85,33.8 46.07,35.05 C44.66,37.29 43.53,39.26 44.28,40.01 Z" fill="#CD7955"/>
  <path d="M72.96,42.69 C73.47,44.38 76.4,42.92 77.18,42.64 C78.26,42.26 79.67,41.75 79.67,41.75 C79.67,41.75 79.86,43.11 80,44.71 C80.09,45.71 80.28,47.76 81.64,47.71 C83.05,47.66 83.06,45.17 83,43.91 C82.81,40.16 83,38.04 82.11,37.48 C81.22,36.92 76.43,39.54 75.45,40.11 C74.47,40.68 72.67,41.75 72.96,42.69 Z" fill="#CD7955"/>
  <path d="M30.86,38.75 C26.21,40.49 25.04,44.57 25.65,47.15 C26.26,49.73 28.79,53.67 35.83,52.45 C42.18,51.35 42.55,45.22 41.13,42.22 C39.54,38.84 35.56,36.99 30.86,38.75 Z" fill="#FFDC1E"/>
  <path d="M28.89,45.22 C28.75,48.13 31.43,49.28 33.96,49.11 C35.41,49.02 38.46,47.98 38.28,44.93 C38.1,42.07 35.65,41.46 33.12,41.5 C31.28,41.55 29.01,42.88 28.89,45.22 Z" fill="#282F2F"/>
  <path d="M23.17,53.01 C23.34,48.7 20.17,45.92 15.71,46.67 C11.39,47.4 12.25,52.61 12.38,53.19 C12.57,54.03 13.04,55.16 13.04,55.16 C13.04,55.16 12,55.83 12,57.89 C12,59.95 12.78,61.94 16.5,61.41 C20.45,60.85 23.03,56.49 23.17,53.01 Z" fill="#FF6666"/>
  <path d="M14.06,54.77 C14.2,55.19 13.82,56.67 15.84,56.65 C20.16,56.6 21.03,54.02 21.07,53.46 C21.12,52.9 20.51,51.4 16.14,51.49 C12.85,51.56 13.87,54.2 14.06,54.77 Z" fill="#A82612"/>
  <path d="M49.02,52.78 C49.26,55.16 52.99,56.31 57.37,56.91 C62.16,57.57 65.58,57.38 65.58,57.38 C65.58,57.38 67.93,56.25 67.88,49.59 C67.83,43.11 65.3,42.27 65.3,42.27 C65.3,42.27 58.87,42.74 53.8,46.49 C51,48.57 48.84,50.9 49.02,52.78 Z" fill="#885B52"/>
  <path d="M60.15,46.44 C56.64,47.36 48.84,50.43 49.03,52.78 C49.17,54.52 52.92,54.09 58.13,54.05 C63.63,54 67.29,54.58 67.29,54.58 C67.29,54.58 67.46,54.11 67.55,53.71 C67.66,53.23 67.68,52.69 67.68,52.69 C67.68,52.69 63.29,51.91 59.12,52.03 C55.84,52.12 51.33,52.73 52.32,51.61 C52.67,51.21 57.9,49.03 60.77,48.51 C63.63,47.99 67.81,47.72 67.81,47.72 C67.81,47.72 67.76,47.12 67.67,46.52 C67.61,46.12 67.46,45.48 67.46,45.48 C67.46,45.48 63.2,45.65 60.15,46.44 Z" fill="#BA8D72"/>
</svg>
